img/link-icon-nbc.svg

<svg fill="none" height="650" viewBox="0 0 650 650" width="650" xmlns="http://www.w3.org/2000/svg" xmlns:xlink="http://www.w3.org/1999/xlink"><clipPath id="a"><path d="m42 146.801h567v356.4h-567z"/></clipPath><path d="m0 0h650v650h-650z" fill="#fff"/><g clip-path="url(#a)"><path d="m293.019 494.201-159.012-112.647c-40.4887-28.734-80.4942.561-89.0229 30.79-12.4852 44.667 15.5187 81.857 59.5249 81.857z" fill="#fccc12"/><path d="m543.245 494.214c44.006 0 72.009-37.19 59.524-81.857-8.484-30.276-48.534-59.57-89.023-30.789l-159.011 112.646z" fill="#05ac3f"/><path d="m444.594 232.048-81.593 198.053-23.3-172.123c-2.989-23.407 34.465-37.798 34.465-37.798-3.428-8.083-15.254-7.942-15.254-7.942h-25.322-.044c-4.045-42.33 32.136-73.167 71.175-63.729 38.423 9.157 52.315 53.497 39.873 83.539z" fill="#6e55dc"/><path d="m313.905 215.036c5.89-43.731-30.994-76.11-70.867-66.485-38.423 9.111-52.315 53.45-39.874 83.539l81.594 198.054z" fill="#ef1541"/><path d="m278.252 462.613-78.296-189.691c-18.332-43.965-66.867-49.432-93.728-23.641-18.8593 18.175-33.5427 67.653 8.705 97.649z" fill="#ff7112"/><path d="m532.83 346.93c42.248-29.949 27.565-79.474 8.706-97.649-26.817-25.791-75.352-20.324-93.728 23.641l-78.296 189.691z" fill="#069de0"/></g></svg>

<svg width="650" height="650" viewBox="0 0 650 650" fill="none" xmlns="http://www.w3.org/2000/svg">
<rect width="650" height="650" fill="white"/>
<g clip-path="url(#clip0_260_545)">
<path d="M293.019 494.201L134.007 381.554C93.5183 352.82 53.5128 382.115 44.9841 412.344C32.4989 457.011 60.5028 494.201 104.509 494.201H293.019Z" fill="#FCCC12"/>
<path d="M543.245 494.214C587.251 494.214 615.254 457.024 602.769 412.357C594.285 382.081 554.235 352.787 513.746 381.568L354.735 494.214H543.245Z" fill="#05AC3F"/>
<path d="M444.594 232.048L363.001 430.101L339.701 257.978C336.712 234.571 374.166 220.18 374.166 220.18C370.738 212.097 358.912 212.238 358.912 212.238H333.59H333.546C329.501 169.908 365.682 139.071 404.721 148.509C443.144 157.666 457.036 202.006 444.594 232.048Z" fill="#6E55DC"/>
<path d="M313.905 215.036C319.795 171.305 282.911 138.926 243.038 148.551C204.615 157.662 190.723 202.001 203.164 232.09L284.758 430.144L313.905 215.036Z" fill="#EF1541"/>
<path d="M278.252 462.613L199.956 272.922C181.624 228.957 133.089 223.49 106.228 249.281C87.3687 267.456 72.6853 316.934 114.933 346.93L278.252 462.613Z" fill="#FF7112"/>
<path d="M532.83 346.93C575.078 316.981 560.395 267.456 541.536 249.281C514.719 223.49 466.184 228.957 447.808 272.922L369.512 462.613L532.83 346.93Z" fill="#069DE0"/>
</g>
<defs>
<clipPath id="clip0_260_545">
<rect width="567" height="356.4" fill="white" transform="translate(42 146.801)"/>
</clipPath>
</defs>
</svg>
